X:1
T:Angelus Domini
T:J. Furmanik
T:Angelus Domini
C:J. Furmanik
%%score [ ( 1 2 ) ( 3 4 ) ] { ( 5 6 7 ) ( 8 9 ) }
L:1/8
Q:1/4=80
M:4/4
K:G
V:1 treble nm="P1"
V:2 treble 
V:3 bass nm="P2"
V:4 bass 
V:5 treble nm="Organ"
V:6 treble 
V:7 treble 
V:8 bass nm="P4"
V:9 bass 
V:1
"^SOPRAN    ALT""^Andante""^Andante" z8 | z8 | z2!p! B4 GG | c3 c A2 z2 | z2!mf! G2 e4 | %5
w: ||An- ge- lus|Do- mi- ni|de- scen-|
!>(! d2 G2 c4 | B4!>)! z4 |!mf! AA A2 AAdc | c3 B B2 z!<(! B | cdec =f2!<)! e!f!e | %10
w: dit de coe-|lo,|et ac- ce- dens re- vol- vit|la- pi- dem, et|su- per e- um se- dit, et|
 d2"^|" B2 e2 c2 |!>(! B4 A4!>)! | !fermata!B8 || z2!mf!"^Solo" G2 G2 Bd | e2 B2 z2!<(! AB | %15
w: di- xit mu- li-|e- ri-|bus:|No- li- te ti-|me- re: sci- o|
 cccc cc!<)!dA | B3 B B2 z2 |"^rit.""^rit." z2 dA G2 G2 | z2!f!"^a tempo""^a tempo" G2 e2 c2 | %19
w: e- nim qui- a cru- ci- fi- xum|quae- ri- tis:|jam sur- re- xit:|ve- ni- te,|
 ccBc d2 d2 | z2 dd =f3 f | e4"^|" d2 c2 | (c4 B3) c | !fermata!c8 ||[M:3/4]!f! BB d2 B2 | z6 | %26
w: et vi- de- te lo- cum,|u- bi po- si-|tus e- rat|Do- * mi-|nus.|Al- le- lu- ja,||
 GG B2 G2 | z6 | EE G2 B2 | ce (d2 A2) | !fermata!B6!fine!!fine! ||[M:4/4] z2!f! G2 G2 GG | %32
w: al- le- lu- ja,||al- le- lu- ja,|al- le- lu- *|ja.|Et in- tro- e-|
 G2 FG A2 GF | E4 D2"^|" D2 | B4 A4 | c3 c B2"^|" B2 | B2 BB e2 A2 | z2 AA AABc | d3 d B2 z2 | %39
w: un- tes in mo- nu- *|men- tum, vi-|de- runt|ju- ve- nem se-|den- tem in dex- tris|co- o- per- tum sto- la|can- di- da,|
 GGGG c2 BB | d2 B2"^-" A4 | !fermata!A8 ||"^Solo"!mf! z2 G2 G2 Bd | e2 B2 z2!<(! AB | %44
w: et ob- stu- pu- e- * runt,|di- xit il-|lis:|No- li- te ti-|me- re: sci- o|
 cccc cc!<)!dA |!>(! B3 B B2!>)! z2 |"^rit.""^rit." z2 dA G2 G2 | %47
w: e- nim qui- a cru- ci- fi- xum|quae- ri- tis:|jam sur- re- xit:|
 z2!f!"^a tempo""^a tempo" G2 e2 c2 | ccBc d2 d2 | z2 dd =f3 f | e4"^|" d2 c2 | (c4 B3) c | %52
w: ve- ni- te|et vi- de- te lo- cum,|u- bi po- si-|tus e- rat|Do- * mi-|
 !fermata!c8 ||[M:3/4]!f! BB d2 B2 | z6 | GG B2 G2 | z6 | EE G2 B2 | ce (d2 A2) | !fermata!B6 || %60
w: nus.|Al- le- lu- ja,||al- le- lu- ja,||al- le- lu- ja,|al- le- lu- *|ja.|
[M:4/4]!p! G3 G G4 | G4 G2 G2 | c3 c"^|"!<(! B4 | B2 B2!<)! e3 e | c4 B4 | %65
w: Glo- ri- a|Pa- tri, et|Fi- li- o,|et Spi- ri- tu-|i San-|
 !fermata![FA]8!D.C.!!D.C.! |] %66
w: cto.|
V:2
 x8 | x8 | x2 D4 EE | E3 E D2 x2 | x2 G2 G4 | G2 G2 F4 | F4 x4 | EE E2 =FFAA | G3 G G2 x G | %9
 GGGG =FGGG | G2 G2 G2 A2 | G4 F4 | G8 || z8 | z8 | z8 | z8 | z8 | z8 | z8 | z8 | z8 | z8 | z8 || %24
[M:3/4] GG A2 G2 | x6 | EE F2 E2 | x6 | CC D2 D2 | EG (G2 F2) | G6 ||[M:4/4] x2 G2 G2 GG | %32
 G2 FG A2 GF | E4 D2 D2 | G4 F4 | G3 G G2 A2 | G2 GG A2 A2 | x2 FF FF^GA | A3 A G2 x2 | %39
 GFED D2 DD | D2 D2 D4 | D8 || z8 | z8 | z8 | z8 | z8 | z8 | z8 | z8 | z8 | z8 | z8 || %53
[M:3/4] GG A2 G2 | x6 | EE F2 E2 | x6 | CC D2 D2 | EG (G2 F2) | G6 ||[M:4/4] G3 G G4 | E4 E2 E2 | %62
 E3 E ^D4 | E2 E2 E3 E | (E2 A2) G4 | x8 |] %66
V:3
"^TENOR   BAS" z8 | z8 |!p! z2 G,4 G,G, | A,3 A, F,2 z2 | z2!mf! G,2 C4 | B,2 E2 E4 | ^D4!mf! z4 | %7
 CC C2 CCDD | E3 D D2 z D | CB,CC A,B,C!f!C | B,2"^|" D2 C2 E2 | D4 D4 | D8 || z8 | z8 | z8 | z8 | %17
 z8 | z8 | z8 | z8 | z8 | z8 | z8 ||[M:3/4]!f! DD D2 D2 | z6 | B,B, B,2 B,2 | z6 | G,G, G,2 G,2 | %29
 G,C (A,2 D2) | D6 ||[M:4/4] z2!f! G,2 G,2 G,G, | G,2 F,G, A,2 G,F, | E,4 D,2"^|" D2 | D4 D4 | %35
 E3 E D2"^|" ^D2 | E2 EE E2 E2 | z2 DD DDDE | D3 D D2 z2 | G,G,G,G, G,F,G,G, | A,2 G,2 (G,2 F,E,) | %41
 F,8 || z8 | z8 | z8 | z8 | z8 | z8 | z8 | z8 | z8 | z8 | z8 ||[M:3/4]!f! DD D2 D2 | z6 | %55
 B,B, B,2 B,2 | z6 | G,G, G,2 G,2 | G,C (A,2 D2) | D6 ||[M:4/4]!p! G,3 G, G,4 | G,4 G,2 G,2 | %62
 F,3 F,"^|"!<(! F,4 | G,2 G,2!<)! G,3 G, | (A,2!>(! E2) D4!>)! | D8 |] %66
V:4
 x8 | x8 | x2 G,,4 C,C, | A,,3 A,, D,2 x2 | x2 G,2 C,4 | G,,2 C,2 A,,4 | B,,4 x4 | %7
 A,,A,, A,2 =F,F,F,F, | G,3 G, G,2 x G, | E,D,C,E, D,2 C,C, | G,2 G,2 C,2 C,2 | D,4 D,4 | %12
 !fermata![G,,G,]8 || x8 | x8 | x8 | x8 | x8 | x8 | x8 | x8 | x8 | x8 | x8 ||[M:3/4] G,G, F,2 G,2 | %25
 x6 | E,E, ^D,2 E,2 | x6 | C,C, B,,2 G,,2 | C,C, D,4 | !fermata![G,,G,]6 || %31
[M:4/4] x2 G,2 G,2 G,G, | G,2 F,G, A,2 G,F, | E,4 D,2 D,2 | G,4 D,4 | C,3 C, G,2 F,2 | %36
 E,2 E,D, C,2 C,2 | x2 D,D, D,C,B,,A,, | [F,,F,]3 [F,,F,] [G,,G,]2 x2 | E,D,C,B,, A,,2 G,,[G,,G,] | %40
 [F,,F,]2 [G,,G,]2 D,4 | !fermata!D,8 || x8 | x8 | x8 | x8 | x8 | x8 | x8 | x8 | x8 | x8 | x8 || %53
[M:3/4] G,G, F,2 G,2 | x6 | E,E, ^D,2 E,2 | x6 | C,C, B,,2 G,,2 | C,C, D,4 | !fermata![G,,G,]6 || %60
[M:4/4] G,3 G, G,4 | C,4 C,2 C,2 | A,,3 A,, B,,4 | E,2 D,2 C,3 C, | (A,,2 C,2) D,4 | %65
 !fermata!D,8 |] %66
V:5
!mp! D2 G2 B3 G | E4 D3 C | B,4 z4 | z4 dcBA | G4 z4 |!mf! z8 | [B-f]2 ^d2 e2 A2- | A2 z2 z4 | %8
 z4!mf! z Bcd | e2 z2 z4 | z B,DG G c2 B/A/ | GABG FGAF | !fermata!G8 ||!p! G8- | G4 A4- | A6 B2- | %16
 B4- B4 | d6 ^d2 | [Ece]2 z2 c4- | c2 Bc d4- | d4 =f4 | e4 d2 c2 | c4 B4 | !fermata!c8 || %24
[M:3/4] z6 |!f! Bc d2 A2 | G2 z2 z2 | GA B2 F2 | E2 z2 Bd | e2 z2 A2 | !fermata![B,DG]6 || %31
[M:4/4]!f! G4 E2 D2 | E2 FG A2 GF | E4 D2 z2 | z8 | z8 | z8 | A4 z4 | z4 z2 G2- | G4 A2 [GB]2 | %40
 z2 G4 FE | !fermata!F8 ||!p! G8- | G4 A4- | A6 B2- | B4- B4 | d6 ^d2 | [ce]2 z2 c4- | c2 Bc d4- | %49
 d4 =f4 | e4 d2 c2 | c4 B4 | !fermata![Ec]8 ||[M:3/4] z6 |!f! Bc d2 A2 | G2 z2 z2 | GA B2 F2 | %57
 E2 z2 Bd | [ce]2 z2 [FA]2 | !fermata![B,DG]6 ||[M:4/4] z8 | z8 | z8 | z8 | z8 | z8 |] %66
V:6
 B,8 | C4 B,3 G, | G,4 x4 | x4 F4 | E4 x4 | x8 | A2 [GB][FA] [EG][DF] [CE][B,D] | [A,C]2 x2 x4 | %8
 x4 x G3- | G2 x2 x4 | x G,B,D E4 | D8- | D8 || D8 | E4- E4 | E4 C2 D2 | =F4 E4 | =F4- F4 | %18
 x2 x2 E4- | E2 G2 =F4 | G4 A4 | x4 =F2 E2 | E4 D2 =F2 | E8 ||[M:3/4] x6 | G4 F2 | E2 x2 x2 | %27
 E4 D2 | C2 x2 G2- | G2 x2 [DF]2 | x6 ||[M:4/4] B,4 C2 B,2 | C2 D2 C2 B,2- | B,2 A,2- A,2 x2 | x8 | %35
 x8 | x8 | D4 x4 | x4 x2 G2 | GFED C2 B,2 | x2 [B,D-]2 [A,D]4- | [A,D]8 || D8 | E4- E4- | %44
 E4 C2 D2 | =F4 E4 | =F8 | E2 x2 E4- | E2 G2 =F4 | G4 A4 | x4 =F2 E2 | E4 D2 =F2 | x8 || %53
[M:3/4] x6 | G4 F2 | E2 x2 x2 | E4 D2 | C2 x2 G2- | G2 x2 D2 | x6 ||[M:4/4] x8 | x8 | x8 | x8 | %64
 x8 | x8 |] %66
V:7
 x8 | x8 | x8 | x8 | x8 | x8 | x8 | x8 | x8 | x8 | x8 | x8 | x8 || x8 | x8 | x8 | x8 | x8 | x8 | %19
 x8 | x8 | G8- | G8- | G8 ||[M:3/4] x6 | x6 | x6 | x6 | x6 | x6 | x6 ||[M:4/4] x8 | x8 | x8 | x8 | %35
 x8 | x8 | x8 | x8 | x8 | x8 | x8 || x8 | x8 | x8 | x8 | x8 | x8 | x8 | x8 | G8- | G8- | G8 || %53
[M:3/4] x6 | x6 | x6 | x6 | x6 | x6 | x6 ||[M:4/4] x8 | x8 | x8 | x8 | x8 | x8 |] %66
V:8
 G,3 E, D,^C,D,^D, | E,^D,E,F, G,A,G,E, | D,4 z4 | z4 A,2 DC | B,4 z4 | z8 | z8 | z8 | z4 z D3 | %9
 C2 z2 z4 |!f! z D,G,B, CG,A,C | B,CDB, A,B,CA, | B,8 || B,8- | B,4 A,4- | A,4 A,4- | A,4 ^G,4 | %17
 A,4 B,4 | [G,C]2 z2 G,4 | A,2 G,2 A,4 | B,4 C4- | C4 x4 | G,8 | x8 ||[M:3/4] z6 | D6 | B,2 z2 z2 | %27
 B,6 | G,2 z2 D2 | [G,C]2 z2 D,2 | G,,6 ||[M:4/4] D,4 E,F, G,2 | G,2 A,G, E,2- E,F, | G,4 F,2 z2 | %34
 z8 | z8 | z8 | F,4 z4 | z4 z2 G,2- | G,4- G,F, [D,G,]2 | z2 G,,2 D,4- | D,8 || B,8- | B,4 A,4- | %44
 A,4- A,4- | A,4 ^G,4 | A,4 B,4 | [G,C]2 z2 G,4 | A,2 G,2 A,4 | B,4 C4- | C4 x4 | G,8 | %52
 !fermata!C,8 ||[M:3/4] z6 | D6 | B,2 z2 z2 | B,6 | G,2 z2 D2 | [G,C]2 z2 D,2 | G,,6 ||[M:4/4] z8 | %61
 z8 | z8 | z8 | z8 | z8 |] %66
V:9
 G,,8- | G,,8- | G,,4 x4 | x4 D,4 | E,4 x4 | x8 | x8 | x8 | x4 x G,,A,,B,, | C,2 x2 x4 | G,,4 C,4 | %11
 D,8 | !fermata!G,,8 || G,8 | E,4 C,4- | C,4 =F,4 | D,4 E,4 | D,4 G,4 | C,2 x2 C,4 | A,,2 E,2 D,4 | %20
 G,4 =F,4 | C,8 | x8 | !fermata!C,8 ||[M:3/4] x6 | G,,A,,B,,C, D,2 | E,2 x2 x2 | %27
 E,,F,,G,,A,, B,,2 | C,2 x2 G,,B,, | C,2 x2 D,2 | !fermata!G,,6 ||[M:4/4] G,,8 | %32
 C,3 B,, A,,2 E,D, | C,2 ^C,2 D,2 x2 | x8 | x8 | x8 | D,4 x4 | x4 x2 G,F, | E,D,C,B,, A,,2 G,,2 | %40
 x8 | !fermata!D,,8 || G,8 | E,4 C,4- | C,4 =F,4 | D,4 E,4 | D,4 G,4 | C,2 x2 C,4 | A,,2 E,2 D,4 | %49
 G,4 =F,4 | C,8 | x8 | x8 ||[M:3/4] x6 | G,,A,,B,,C, D,2 | E,2 x2 x2 | E,,F,,G,,A,, B,,2 | %57
 C,2 x2 G,,B,, | C,2 x2 D,2 | !fermata!G,,6 ||[M:4/4] x8 | x8 | x8 | x8 | x8 | x8 |] %66

